X:1
T:Captiva, 88.84
T:Captiva, 88.84
T:Samuel Reay, 1872
T:Public Domain Courtesy of the Cyber Hymnal™
C:Samuel Reay, 1872
Z:Public Domain
Z:Courtesy of the Cyber Hymnal™
%%score ( 1 2 ) ( 3 4 )
L:1/8
Q:1/4=105
M:4/4
K:G
V:1 treble 
V:2 treble 
V:3 bass 
V:4 bass 
V:1
 [GB]2 [GB][GB] [GB][GB][=Fd][Fd] | [=Fd]2 [EG]2 [Ec]2 [FB]2 | [EA]2 E2 [EF]2 [EG]2 | (B4 A2) D2 | %4
 [DE]2 [DF]2 [DG]2 [GA]2 | [GB]2 [=Fd]2 [Ee]2 [CG]2 | [DG]4 [CA]4 x4 | [B,G]8 |] %8
V:2
 x8 | x8 | x2 E2 x4 | D6 D2 | x8 | x8 | x12 | x8 |] %8
V:3
 [G,D]2 [G,D][G,D] [G,D][G,D][B,,G,][B,,G,] | [C,G,]2 [C,G,]2 [A,,A,]2 [D,^G,]2 | %2
 [C,A,]2 [A,C]2 [A,C]2 [A,C]2 | [F,C]6 [C,F,]2 | [B,,G,]2 [A,,C]2 [G,,B,]2 [G,C]2 | %5
 [G,D]2 [B,,G,]2 [C,G,]2 [E,G,]2 | B,4 z2 x6 | [G,,G,]8 |] %8
V:4
 x8 | x8 | x8 | x8 | x8 | x8 | D,6 F,4 D,2 | x8 |] %8

